apps/16/address-book.svg

<?xml version="1.0" encoding="UTF-8"?>
<!-- Created with Inkscape (http://www.inkscape.org/) -->
<svg width="16" height="16" version="1.1" xmlns="http://www.w3.org/2000/svg" xmlns:cc="http://creativecommons.org/ns#" xmlns:dc="http://purl.org/dc/elements/1.1/" xmlns:rdf="http://www.w3.org/1999/02/22-rdf-syntax-ns#" xmlns:xlink="http://www.w3.org/1999/xlink">
	<defs>
		<radialGradient id="b" cx="7800.1" cy="-3926.4" r="6.5" gradientTransform="matrix(-7.7857e-6,1.8461,-2,-1.5122e-5,-7844.7,-14396)" gradientUnits="userSpaceOnUse">
			<stop stop-color="#ffffff" stop-opacity=".74858" offset="0"/>
			<stop stop-color="#ffffff" stop-opacity=".60511" offset="1"/>
		</radialGradient>
		<radialGradient id="a" cx="8" cy="13.342" r="6" gradientTransform="matrix(2.938 0 0 3.1845 -16.017 -28.381)" gradientUnits="userSpaceOnUse">
			<stop stop-color="#213851" stop-opacity=".9059" offset="0"/>
			<stop stop-color="#27303a" stop-opacity="0" offset="1"/>
		</radialGradient>
		<radialGradient id="c" cx="7800.7" cy="-3926.4" r="6.5" gradientTransform="matrix(8.5282e-6 2.5506 -2.7632 0 -10842 -19893)" gradientUnits="userSpaceOnUse" xlink:href="#b"/>
		<radialGradient id="d" cx="-3354.2" cy="2106.4" r="3.5" gradientTransform="matrix(1.1619,0,0,1.0893,3922.6,-2288.2)" gradientUnits="userSpaceOnUse" xlink:href="#b"/>
	</defs>
	<metadata>
		<rdf:RDF>
			<cc:Work rdf:about="">
				<dc:format>image/svg+xml</dc:format>
				<dc:type rdf:resource="http://purl.org/dc/dcmitype/StillImage"/>
				<dc:title/>
			</cc:Work>
		</rdf:RDF>
	</metadata>
	<path d="m2 1c-0.554 0-1 0.446-1 1v12c0 0.554 0.446 1 1 1h11v-11h2v-2c0-0.554-0.446-1-1-1zm3 3h5c0.554 0 1 0.446 1 1v4c0 0.554-0.446 1-1 1h-3c-0.554 0-1-0.446-1-1v-2c0-0.554 0.446-1 1-1h1c0.554 0 1 0.446 1 1v2h1v-4h-5v6h3v1h-3c-0.554 0-1-0.446-1-1v-6c0-0.554 0.446-1 1-1zm9 1v2h1v-2zm-7 2v2h1v-2zm7 1v2h1v-2zm0 3v2h1v-2z" color="#000000" fill="#090d11" fill-opacity=".76621" style="paint-order:normal"/>
	<path d="m2 1c-0.554 0-1 0.446-1 1v12c0 0.554 0.446 1 1 1h11v-11h2v-2c0-0.554-0.446-1-1-1zm3 3h5c0.554 0 1 0.446 1 1v4c0 0.554-0.446 1-1 1h-3c-0.554 0-1-0.446-1-1v-2c0-0.554 0.446-1 1-1h1c0.554 0 1 0.446 1 1v2h1v-4h-5v6h3v1h-3c-0.554 0-1-0.446-1-1v-6c0-0.554 0.446-1 1-1zm9 1v2h1v-2zm-7 2v2h1v-2zm7 1v2h1v-2zm0 3v2h1v-2z" color="#000000" fill="url(#a)" fill-opacity=".7533" style="font-variant-east_asian:normal;paint-order:normal"/>
	<path d="m2 0c-1.0907 0-2 0.9093-2 2v12c0 1.0907 0.9093 2 2 2h12v-2h2v-3-1-2-1-2-1-2c0-1.0907-0.9093-2-2-2h-12zm0 1h12c0.554 0 1 0.446 1 1v2h-2v11h-11c-0.554 0-1-0.446-1-1v-12c0-0.554 0.446-1 1-1zm3 3c-0.554 0-1 0.446-1 1v6c0 0.554 0.446 1 1 1h3v-1h-3v-6h5v4h-1v-2c0-0.554-0.446-1-1-1h-1c-0.554 0-1 0.446-1 1v2c0 0.554 0.446 1 1 1h3c0.554 0 1-0.446 1-1v-4c0-0.554-0.446-1-1-1h-5zm9 1h1v2h-1v-2zm-7 2h1v2h-1v-2zm7 1h1v2h-1v-2zm0 3h1v2h-1v-2z" color="#000000" color-rendering="auto" dominant-baseline="auto" fill="url(#c)" image-rendering="auto" shape-rendering="auto" solid-color="#000000" style="font-feature-settings:normal;font-variant-alternates:normal;font-variant-caps:normal;font-variant-east_asian:normal;font-variant-ligatures:normal;font-variant-numeric:normal;font-variant-position:normal;isolation:auto;mix-blend-mode:normal;paint-order:normal;shape-padding:0;text-decoration-color:#000000;text-decoration-line:none;text-decoration-style:solid;text-indent:0;text-orientation:mixed;text-transform:none;white-space:normal"/>
	<path d="m24 6c-0.5541 0-1 0.4459-1 1v3c0 0.5541 0.4459 1 1 1h4c0.5541 0 1-0.4459 1-1v-3c0-0.5541-0.4459-1-1-1z" fill="url(#d)" style="paint-order:normal"/>
</svg>

<?xml version="1.0" encoding="UTF-8" standalone="no"?>
<!-- Created with Inkscape (http://www.inkscape.org/) -->

<svg
   xmlns:dc="http://purl.org/dc/elements/1.1/"
   xmlns:cc="http://creativecommons.org/ns#"
   xmlns:rdf="http://www.w3.org/1999/02/22-rdf-syntax-ns#"
   xmlns:svg="http://www.w3.org/2000/svg"
   xmlns="http://www.w3.org/2000/svg"
   xmlns:sodipodi="http://sodipodi.sourceforge.net/DTD/sodipodi-0.dtd"
   xmlns:inkscape="http://www.inkscape.org/namespaces/inkscape"
   version="1.1"
   width="16"
   height="16"
   id="svg2"
   inkscape:version="0.48.3.1 r9886"
   sodipodi:docname="address-book.svg">
  <sodipodi:namedview
     pagecolor="#ffffff"
     bordercolor="#666666"
     borderopacity="1"
     objecttolerance="10"
     gridtolerance="10"
     guidetolerance="10"
     inkscape:pageopacity="0"
     inkscape:pageshadow="2"
     inkscape:window-width="1920"
     inkscape:window-height="1033"
     id="namedview6"
     showgrid="true"
     inkscape:zoom="41.7193"
     inkscape:cx="9.754362"
     inkscape:cy="8.1439186"
     inkscape:window-x="-10"
     inkscape:window-y="25"
     inkscape:window-maximized="1"
     inkscape:current-layer="svg2"
     inkscape:snap-bbox="true"
     inkscape:bbox-paths="true"
     inkscape:bbox-nodes="true"
     inkscape:snap-bbox-edge-midpoints="true"
     inkscape:snap-bbox-midpoints="true"
     inkscape:object-paths="true"
     inkscape:snap-intersection-paths="true"
     inkscape:object-nodes="true"
     inkscape:snap-smooth-nodes="true"
     inkscape:snap-midpoints="true"
     inkscape:snap-object-midpoints="true"
     inkscape:snap-center="true">
    <inkscape:grid
       type="xygrid"
       id="grid2982"
       empspacing="5"
       visible="true"
       enabled="true"
       snapvisiblegridlinesonly="true" />
  </sodipodi:namedview>
  <defs
     id="defs4" />
  <metadata
     id="metadata7">
    <rdf:RDF>
      <cc:Work
         rdf:about="">
        <dc:format>image/svg+xml</dc:format>
        <dc:type
           rdf:resource="http://purl.org/dc/dcmitype/StillImage" />
        <dc:title />
      </cc:Work>
    </rdf:RDF>
  </metadata>
  <path
     sodipodi:nodetypes="ccccccccccccccccccccccccccccccccccccccssssssssssscccccccsssscccccccccccccccccccc"
     inkscape:connector-curvature="0"
     id="path2989"
     d="M 2,1 2,1 1,1 1,2 3,2 3,3 1,3 1,4 3,4 3,5 1,5 1,6 3,6 3,7 1,7 1,8 3,8 3,9 1,9 l 0,1 2,0 0,1 -2,0 0,1 2,0 0,1 -2,0 0,1 2,0 0,1 10,0 0,-11 1,0 1,0 0,-3 -1,0 -1,0 z m 3,3 5,0 c 0.554,0 1,0.446 1,1 l 0,4 c 0,0.554 -0.446,1 -1,1 L 7,10 C 6.446,10 6,9.554 6,9 L 6,7 C 6,6.446 6.446,6 7,6 l 1,0 c 0.554,0 1,0.446 1,1 l 0,2 1,0 0,-4 -5,0 0,6 3,0 0,1 -3,0 C 4.446,12 4,11.554 4,11 L 4,5 C 4,4.446 4.446,4 5,4 z m 9,1 0,2 1,0 0,-2 z M 7,7 7,9 8,9 8,7 z m 7,1 0,2 1,0 0,-2 z m 0,3 0,2 1,0 0,-2 z"
     style="color:#000000;fill:#27303a;fill-opacity:0.753280819999999968;fill-rule:nonzero;stroke:none;marker:none;visibility:visible;display:inline;overflow:visible;enable-background:accumulate" />
  <path
     style="font-size:medium;font-style:normal;font-variant:normal;font-weight:normal;font-stretch:normal;text-indent:0;text-align:start;text-decoration:none;line-height:normal;letter-spacing:normal;word-spacing:normal;text-transform:none;direction:ltr;block-progression:tb;writing-mode:lr-tb;text-anchor:start;baseline-shift:baseline;color:#000000;fill:#f1f3f5;fill-opacity:0.90288714000000003;fill-rule:nonzero;stroke:none;stroke-width:2;marker:none;visibility:visible;display:inline;overflow:visible;enable-background:accumulate;font-family:Sans;-inkscape-font-specification:Sans"
     d="m 0,0 0,1 0,1 0,1 0,1 0,1 0,1 0,1 0,1 0,1 0,1 0,1 0,1 0,1 0,1 0,1 1,0 0,1 1,0 11,0 1,0 0,-1 0,-1 1,0 1,0 0,-1 0,-2 0,-1 L 16,8 16,7 16,5 16,4 16,1 16,0 15,0 14,0 13,0 2,0 1,0 z m 1,1 1,0 11,0 1,0 1,0 0,3 -1,0 -1,0 0,11 -10,0 0,-1 -2,0 0,-1 2,0 0,-1 -2,0 0,-1 2,0 L 3,10 1,10 1,9 3,9 3,8 1,8 1,7 3,7 3,6 1,6 1,5 3,5 3,4 1,4 1,3 3,3 3,2 1,2 z M 5,4 C 4.446,4 4,4.446 4,5 l 0,6 c 0,0.554 0.446,1 1,1 L 8,12 8,11 5,11 5,5 10,5 10,9 9,9 9,7 C 9,6.446 8.554,6 8,6 L 7,6 C 6.446,6 6,6.446 6,7 l 0,2 c 0,0.554 0.446,1 1,1 l 3,0 c 0.554,0 1,-0.446 1,-1 L 11,5 C 11,4.446 10.554,4 10,4 z m 9,1 1,0 0,2 -1,0 z M 7,7 8,7 8,9 7,9 z m 7,1 1,0 0,2 -1,0 z m 0,3 1,0 0,2 -1,0 z"
     id="path2984"
     inkscape:connector-curvature="0"
     sodipodi:nodetypes="cccccccccccccccccccccccccccccccccccccccccccccccccccccccccccccccccccccccccccccsssscccccccssssssssssscccccccccccccccccccc" />
</svg>
